!!!COM: Music21
!!!OTL: Valse Picado
!!!OMV: pezas_valses_valse-picado_valse-picado-partitura.musicxml
**kern
*part1
*staff1
*I"Bagpipes
*I'Bag
*clefG^2
*k[]
*M3/4
=1
!LO:TX:a:t=Presto
*MM184
!LO:TX:a:t=[quarter]=184
4r
4ee
4gg
=||
8cccL
8ggJ
8eeL
8ggJ
8eeL
8ggJ
=
8cccL
8ggJ
8eeL
8ggJ
8eeL
8ggJ
=
4bb
4aa
4gg
=
4ff
4dd
4ff
=
8bbL
8ffJ
8ddL
8ffJ
8ddL
8ffJ
=
8bbL
8ffJ
8ddL
8ffJ
8ddL
8ffJ
!!linebreak:original
=
4aa
4gg
4ff
!!linebreak:original
=
2ee
4gg
=||
8cccL
8ggJ
8eeL
8ggJ
8eeL
8ggJ
=
8cccL
8ggJ
8eeL
8ggJ
8eeL
8ggJ
=
4bb
4aa
4gg
=
4ff
4dd
4ff
=
8bbL
8ffJ
8ddL
8ffJ
8ddL
8ffJ
=
8bbL
8ffJ
8ddL
8ffJ
8ddL
8ffJ
=
4aa
4gg
4ff
!!linebreak:original
=
4ee
4.ee
8ff
=||
4gg
8ggL
8eeJ
4gg
=
4ee
4ff
4gg
=
4aa
8aaL
8ffJ
4aa
=
4ff
4gg
4aa
=
4bb
8bbL
8aaJ
[4bb
=
8bbL]
8ggJ
4.aa
8ff
=
8ggL
8aaJ
8ggL
8ffJ
[4ee
!!linebreak:original
=
4ee]
4.ee
8ff
=
4gg
8ggL
8eeJ
4gg
=
4ee
4ff
4gg
=
4aa
8aaL
8ffJ
4aa
=
4ff
4gg
4aa
=
4bb
4aa
4bb
=
4gg
4aa
4bb
=
[2.ccc
=
4ccc]
4.ee
8ff
!!pagebreak:original
=||
4gg
8ggL
8eeJ
4gg
=
4ee
4ff
4gg
=
4aa
8aaL
8ffJ
4aa
=
4ff
4gg
4aa
=
4bb
8bbL
8aaJ
[4bb
=
8bbL]
8ggJ
4.aa
8ff
=
8ggL
8aaJ
8ggL
8ffJ
[4ee
!!linebreak:original
=
4ee]
4.ee
8ff
=
4gg
8ggL
8eeJ
4gg
=
4ee
4ff
4gg
=
4aa
8aaL
8ffJ
4aa
=
4ff
4gg
4aa
=
4bb
4aa
4bb
=
4gg
4aa
4bb
=
[2.ccc
=
4ccc]
4ccc
4ccc
!!linebreak:original
=||
4ccc
4.bb
8aa
=
4bb
4.aa
8gg
=
4aa
[2gg
=
4gg]
4bb
4bb
=
4bb
4.aa
8gg
=
4aa
4.gg
8ff
=
4ff
[2ee
=
4ee]
4ccc
4ccc
=
4ccc
4.bb
8aa
!!linebreak:original
=
4bb
4.aa
8gg
=
4aa
[2gg
!!linebreak:original
=
4gg]
4bb
4bb
=
4bb
4aa
4gg
=
4aa
2bb
.
=
[2.ccc
=
4ccc]
4ccc
4ccc
!!linebreak:original
=||
4ccc
4.bb
8aa
=
4bb
4.aa
8gg
=
4aa
[2gg
=
4gg]
4bb
4bb
=
4bb
4.aa
8gg
=
4aa
4.gg
8ff
=
4ff
[2ee
=
4ee]
4ccc
4ccc
=
4ccc
4.bb
8aa
!!pagebreak:original
=
4bb
4.aa
8gg
=
4aa
[2gg
!!linebreak:original
=
4gg]
4bb
4bb
=
4bb
4aa
4gg
=
4aa
2bb
.
=||
[2.ccc
=
4ccc]
4ee
4gg
=||
2ccc
4gg
=
8ccc
8r
2r
==
*-
!!!system-decoration: s1,s2
